packages/astro-components-stencil/src/icons/store.svg

<svg width="24" height="24" viewBox="0 0 24 24" fill="none" xmlns="http://www.w3.org/2000/svg">
<path fill-rule="evenodd" clip-rule="evenodd" d="M5.00001 6H19C19.55 6 20 5.55 20 5C20 4.45 19.55 4 19 4H5.00001C4.45001 4 4.00001 4.45 4.00001 5C4.00001 5.55 4.45001 6 5.00001 6ZM20.16 7.8C20.07 7.34 19.66 7 19.18 7H4.82001C4.34001 7 3.93001 7.34 3.84001 7.8L2.84001 12.8C2.72001 13.42 3.19001 14 3.82001 14H4.00001V19C4.00001 19.55 4.45001 20 5.00001 20H13C13.55 20 14 19.55 14 19V14H18V19C18 19.55 18.45 20 19 20C19.55 20 20 19.55 20 19V14H20.18C20.81 14 21.28 13.42 21.16 12.8L20.16 7.8ZM6.00001 18H12V14H6.00001V18Z" fill="black"/>
</svg>

<svg xmlns="http://www.w3.org/2000/svg" viewBox="0 0 24 24"><g xmlns="http://www.w3.org/2000/svg" id="store" fill-rule="nonzero">
            <path d="M5 6h14c.55 0 1-.45 1-1s-.45-1-1-1H5c-.55 0-1 .45-1 1s.45 1 1 1zm15.16 1.8c-.09-.46-.5-.8-.98-.8H4.82c-.48 0-.89.34-.98.8l-1 5c-.12.62.35 1.2.98 1.2H4v5c0 .55.45 1 1 1h8c.55 0 1-.45 1-1v-5h4v5c0 .55.45 1 1 1s1-.45 1-1v-5h.18c.63 0 1.1-.58.98-1.2l-1-5zM12 18H6v-4h6v4z"/>
        </g></svg>
